assets/icons/icon_sensor_v2.svg

<svg width="30" height="30" viewBox="0 0 30 30" fill="none" xmlns="http://www.w3.org/2000/svg">
<g clip-path="url(#clip0_2046_804)">
<path d="M10.1228 6.62061C10.4103 6.5466 10.7117 6.54519 10.9998 6.6167C11.2133 6.66342 11.4096 6.77094 11.5642 6.92529C11.713 7.07387 11.8175 7.26036 11.8669 7.46436L11.9988 7.85205L12.2498 8.57373C12.4896 9.27991 12.7921 10.1879 13.0906 11.0532L13.1199 11.0161L13.1296 11.0015L13.1423 10.9897C13.352 10.7873 13.6083 10.6389 13.8884 10.5581C14.0199 10.5202 14.155 10.4995 14.2908 10.4927C15.215 10.5228 15.5275 11.0409 15.6365 11.1499C15.6433 11.1565 15.6492 11.136 15.656 11.0913C15.8268 10.8561 16.0586 10.6691 16.3289 10.5532C16.6792 10.4031 17.0714 10.3809 17.4363 10.4907C17.6692 10.5582 17.8833 10.6805 18.0593 10.8472L18.0818 10.8687L18.0974 10.895C18.2208 11.1037 18.3294 11.3207 18.4265 11.5425C18.4681 11.4932 18.5133 11.4464 18.5623 11.4038L18.5662 11.4009H18.5671C18.7625 11.2393 18.9918 11.1237 19.238 11.063C19.4844 11.0023 19.7417 10.998 19.99 11.0503H19.991C20.1825 11.0921 20.3614 11.181 20.5105 11.3081C20.6595 11.4352 20.7751 11.5975 20.8464 11.7798L20.8611 11.8179V11.9263C21.132 12.7564 21.3501 13.5404 21.5515 14.3062C21.7038 14.885 21.8647 15.467 22.0339 16.0298L22.2058 16.5854L22.2097 16.5981L22.2126 16.6118C22.255 16.8346 22.4599 17.7272 22.658 18.6235C22.7564 19.069 22.853 19.5133 22.9246 19.8696C22.9603 20.0475 22.9904 20.2051 23.0115 20.3306C23.0287 20.4332 23.0403 20.528 23.0437 20.5952C23.0766 20.7795 23.0694 20.9689 23.0212 21.1499C22.9919 21.2603 22.9465 21.3652 22.8894 21.4634C22.984 21.5566 23.0597 21.6681 23.1042 21.7954L23.1101 21.812L23.113 21.8286L23.3562 23.1655L23.4031 23.4253H23.365C23.3581 23.5471 23.3257 23.6677 23.2683 23.7778C23.1672 23.9716 22.9966 24.12 22.7908 24.1938L22.781 24.1978L17.6589 25.7612L17.6277 25.771H17.3972C17.2136 25.769 17.0345 25.7096 16.8865 25.6011C16.7486 25.5 16.6454 25.3602 16.5857 25.2007L15.9753 24.2212L15.9656 24.2065L15.9597 24.1909C15.9131 24.082 15.8884 23.9646 15.8884 23.8462C15.8884 23.8279 15.8902 23.8097 15.8914 23.7915C15.7508 23.7637 15.6182 23.7007 15.5085 23.606L15.4988 23.5972L15.49 23.5874C15.2963 23.3743 14.3948 22.3706 13.488 21.2563C13.0347 20.6992 12.5776 20.1117 12.2068 19.5806C11.8408 19.0564 11.5425 18.5654 11.4255 18.2065L11.4246 18.2017L11.3562 17.9751L11.3269 17.8647C11.2743 17.6089 11.3336 17.3504 11.4207 17.1265C11.5211 16.8683 11.6724 16.621 11.7927 16.4272L11.7957 16.4233L11.8406 16.353C11.3832 14.8351 10.9387 13.5148 10.4607 12.1733H10.4558C10.3098 11.7668 10.1572 11.355 9.96851 10.8521C9.67469 10.0054 9.36742 9.13095 9.06909 8.2085C9.05164 7.89937 9.06524 7.60436 9.13452 7.35498C9.18554 7.24456 9.2535 7.14224 9.33862 7.0542L9.34644 7.04639L9.51929 6.90381C9.70009 6.77277 9.90523 6.67669 10.1228 6.62061ZM17.0808 25.4653C17.0849 25.4676 17.0894 25.469 17.0935 25.4712C17.0671 25.4569 17.0408 25.4412 17.0164 25.4233L17.0808 25.4653ZM16.1218 23.978C16.1307 24.0212 16.1445 24.0633 16.1619 24.104L16.78 25.0972C16.7918 25.1332 16.8074 25.1675 16.825 25.2007C16.8075 25.1677 16.7927 25.133 16.781 25.0972L16.1619 24.104C16.1271 24.0225 16.1091 23.9348 16.1091 23.8462L16.1218 23.978ZM17.2166 25.0825C17.2292 25.0996 17.2429 25.1139 17.2566 25.1265C17.2289 25.1013 17.2032 25.0672 17.1804 25.0229L17.2166 25.0825ZM16.7175 23.8276L17.3357 24.8335L17.3474 24.853L17.3552 24.8745C17.3755 24.9312 17.3957 24.9542 17.4041 24.9624C17.4051 24.9621 17.4066 24.9619 17.408 24.9614L17.4207 24.9575L22.5183 23.4009V23.3989L22.5115 23.3804L22.5076 23.3618L22.28 22.0884H22.2478L16.7175 23.8276ZM22.6072 23.604L22.6482 23.5845C22.6544 23.5808 22.6591 23.5751 22.6648 23.5708C22.6471 23.5841 22.6285 23.5963 22.6072 23.604ZM22.6814 23.5571C22.6985 23.5416 22.7147 23.5251 22.7273 23.5054C22.7147 23.5251 22.6985 23.5417 22.6814 23.5571ZM10.6638 7.41553L10.6375 7.42041L10.6101 7.41846C10.4889 7.41042 10.367 7.42735 10.2527 7.46826C10.1669 7.49898 10.0865 7.54316 10.0144 7.59814L9.94507 7.65674C9.9418 7.65988 9.93883 7.66429 9.93726 7.66846L9.93237 7.68115C9.91703 7.71523 9.90895 7.75221 9.90894 7.78955C9.90894 7.80825 9.91088 7.82703 9.91479 7.84521L9.93237 7.89893L9.93823 7.91162L9.94214 7.92529C10.2075 8.80252 10.5103 9.61928 10.7937 10.4282L11.0691 11.2358L11.072 11.2466L11.1121 11.3384C11.1285 11.3747 11.1533 11.4349 11.1619 11.5073L11.2156 11.6841L11.2908 11.8716L11.2947 11.8813L12.0173 13.9917C12.2558 14.7081 12.4915 15.4461 12.7234 16.231L12.7322 16.2612V16.4946L12.7009 16.5474L12.6306 16.6646L12.533 16.8433L12.53 16.8501L12.5251 16.8569C12.4232 17.0174 12.3118 17.1988 12.2361 17.3696C12.1985 17.4544 12.1734 17.5303 12.1609 17.5942C12.1482 17.6592 12.1514 17.6991 12.158 17.7202V17.7212L12.2283 17.9458L12.3025 18.1304C12.3976 18.3353 12.5549 18.6006 12.7644 18.9116C13.0399 19.3207 13.3933 19.7915 13.7791 20.2788C14.5247 21.2206 15.3864 22.2167 16.032 22.937L16.3376 22.8394L16.3396 22.8384C17.5091 22.4749 20.5208 21.4965 22.0486 21.0396C22.0645 20.9957 22.0878 20.888 22.0886 20.647C21.8847 19.3574 21.6109 18.0795 21.2673 16.8198H21.2664C21.0228 16.0957 20.8101 15.2708 20.6091 14.5376C20.4053 13.7942 20.1799 12.9704 19.908 12.1479L19.8962 12.1138V12.0454C19.8745 12.0051 19.8467 11.9684 19.8113 11.939C19.7664 11.9018 19.7131 11.8758 19.656 11.8638V11.8628C19.5355 11.8381 19.4101 11.8418 19.2908 11.8716C19.1712 11.9015 19.0593 11.9579 18.9646 12.0366C18.9156 12.0773 18.8755 12.128 18.8484 12.1851C18.8523 12.2102 18.8587 12.2469 18.865 12.2856C18.8838 12.4024 18.9172 12.6027 18.9812 12.9341L19.0642 13.1821L19.1404 13.4077L18.908 13.4653L18.2742 13.6216L18.0613 13.6743L18.0076 13.4614L17.8904 12.9917V12.9897C17.754 12.4217 17.5772 11.8642 17.365 11.3198C17.3002 11.2727 17.2298 11.2335 17.1531 11.2095V11.2085C16.9839 11.1604 16.8028 11.1692 16.6384 11.2319C16.4955 11.2866 16.3725 11.3813 16.281 11.5024C16.3668 12.2078 16.5245 12.9025 16.7527 13.5757L16.823 13.771L16.8992 13.9839L16.6843 14.0542L16.0662 14.2583L15.8201 14.3384L15.78 14.0835L15.7605 13.9624C15.733 13.9028 15.7099 13.8413 15.6931 13.7778V13.7788C15.553 13.3358 15.2097 12.323 15.0076 11.7798L15.0066 11.7759C14.9919 11.7338 14.9737 11.6927 14.9519 11.6538L14.9412 11.6353L14.9343 11.6138C14.9161 11.5572 14.8853 11.5047 14.8455 11.4604C14.8057 11.4165 14.7572 11.3809 14.7029 11.3569L14.6951 11.354C14.6668 11.3404 14.6363 11.3308 14.6052 11.3267L14.5896 11.3247C14.4442 11.2942 14.293 11.2988 14.1501 11.3394C14.0139 11.3781 13.8884 11.4484 13.7839 11.5435L13.7888 11.562L13.7761 11.6089L13.782 11.6284V11.7485C13.785 11.7702 13.7886 11.7917 13.7937 11.813L13.8152 11.8862L13.8191 11.895L13.821 11.9048C13.9181 12.2729 14.0785 12.8281 14.2146 13.2925C14.2825 13.5241 14.3436 13.7327 14.3884 13.8833C14.4108 13.9585 14.4296 14.0191 14.4421 14.061C14.4484 14.082 14.4535 14.0988 14.4568 14.1099C14.4584 14.1152 14.4589 14.1198 14.4597 14.1226L14.4607 14.1255L14.5164 14.3052L14.5789 14.5103L14.3748 14.5786L13.7878 14.7739L13.5896 14.8394L13.5134 14.645L13.4431 14.4653L13.4275 14.4263V14.4126C13.4257 14.4069 13.4232 14.4 13.4207 14.3921C13.41 14.3587 13.3939 14.3102 13.3728 14.2476C13.3305 14.122 13.2688 13.9431 13.1921 13.7241C13.0388 13.2863 12.8262 12.6886 12.5876 12.0366L12.5867 12.0356L12.5164 11.8403L12.5154 11.8374L12.4451 11.6343L12.4431 11.6294C12.2366 10.9798 12.0012 10.2978 11.7849 9.6792C11.5693 9.06269 11.3723 8.50537 11.2458 8.11084L11.1121 7.69678L11.1091 7.68701L11.1072 7.67725C11.0928 7.61252 11.0599 7.55287 11.0125 7.50635C10.9655 7.4603 10.9061 7.42797 10.8416 7.41455C10.783 7.4042 10.7224 7.40487 10.6638 7.41553ZM22.2625 21.8677H22.2156V21.8687H22.2625C22.2985 21.8608 22.3358 21.8609 22.3718 21.8687L22.3728 21.8677C22.3367 21.8598 22.2986 21.8598 22.2625 21.8677ZM22.2576 21.1099C22.2602 21.1025 22.2629 21.0948 22.2654 21.0864C22.2629 21.0948 22.2602 21.1025 22.2576 21.1099ZM11.6345 18.1382C11.6609 18.2192 11.6981 18.3092 11.7449 18.4067C11.7917 18.5044 11.8483 18.6096 11.9128 18.7212H11.9138C11.7848 18.4983 11.6884 18.3004 11.6355 18.1382L11.5652 17.9038H11.5642L11.6345 18.1382ZM13.4324 14.4312C13.4323 14.4307 13.4328 14.4296 13.4324 14.4282L13.4314 14.4263C13.4319 14.4287 13.4323 14.4307 13.4324 14.4312ZM14.0037 13.354C14.1251 13.7683 14.2263 14.1088 14.2468 14.1772C14.2146 14.0697 13.9849 13.301 13.7917 12.6226L14.0037 13.354ZM15.5818 12.7456H15.5828C15.4536 12.3677 15.3164 11.9772 15.2146 11.7036H15.2136C15.3154 11.9771 15.4527 12.3676 15.5818 12.7456ZM15.4656 3.86182L14.5476 3.80322V3.72119H-12.3606V11.3345L6.94604 11.353V12.1733H-13.1995V2.88232H15.4656V3.86182ZM18.5164 11.7905C18.4899 11.8316 18.4656 11.874 18.4451 11.9185C18.4249 11.962 18.4073 12.007 18.3933 12.0532L18.3943 12.0552C18.4226 11.9613 18.4638 11.8723 18.5164 11.7905ZM18.7019 12.0015C18.6967 12.0091 18.6921 12.0171 18.6873 12.0249C18.7082 11.9914 18.7318 11.9595 18.7585 11.9302L18.7019 12.0015ZM19.7019 11.6489C19.7247 11.6538 19.7473 11.66 19.7693 11.6675C19.7472 11.6599 19.7249 11.6528 19.7019 11.6479C19.6683 11.641 19.6343 11.6369 19.6003 11.6333C19.6344 11.6369 19.6683 11.642 19.7019 11.6489ZM10.4207 11.4839V11.5767L10.4216 11.5776V11.4839C10.2375 10.9442 10.0452 10.3987 9.85132 9.83936C10.045 10.3986 10.2366 10.9443 10.4207 11.4839ZM13.2009 11.2729C13.1733 11.3204 13.1502 11.3703 13.1306 11.4214C13.1503 11.3703 13.1743 11.3205 13.2019 11.2729L13.2957 11.1479L13.2009 11.2729ZM10.8601 11.3042L10.658 10.7065C10.6398 10.6541 10.6207 10.6019 10.6023 10.5493C10.6912 10.8035 10.7787 11.0547 10.8601 11.3042ZM14.7908 11.1558C14.8323 11.1741 14.8722 11.1966 14.9089 11.2231L14.7917 11.1558C14.767 11.1438 14.7408 11.1343 14.7146 11.1265C14.7407 11.1343 14.7662 11.1439 14.7908 11.1558ZM13.6414 10.895C13.6331 10.8994 13.6251 10.9041 13.6169 10.9087C13.6663 10.881 13.7171 10.8557 13.7693 10.8335L13.6414 10.895ZM16.4148 10.7554C16.377 10.7716 16.3404 10.7898 16.3044 10.8091C16.3406 10.7897 16.3778 10.7716 16.4158 10.7554C16.4537 10.7391 16.4921 10.7242 16.531 10.7114C16.4918 10.7242 16.4529 10.739 16.4148 10.7554ZM14.3347 10.7095C14.3952 10.7076 14.4559 10.7083 14.5164 10.7134L14.3738 10.7075C14.3607 10.7076 14.3477 10.709 14.3347 10.7095ZM10.2986 9.68799C10.3742 9.90183 10.4491 10.1138 10.5232 10.3237C10.3536 9.84316 10.1778 9.35261 10.0085 8.8501L10.2986 9.68799ZM1.98608 7.35498H6.94604V8.19385H1.98608C1.87613 8.1937 1.77001 8.14952 1.69214 8.07178C1.63392 8.01351 1.59488 7.93947 1.57886 7.85986L1.57104 7.77783L1.57886 7.69678C1.59436 7.6174 1.63235 7.54297 1.68921 7.48389L1.75073 7.43115C1.817 7.38466 1.89629 7.35817 1.97827 7.35498L1.98608 7.354V7.35498ZM9.85718 6.95459C9.84901 6.95876 9.84086 6.96298 9.83276 6.96729C9.88406 6.94002 9.93685 6.91549 9.99097 6.89404L9.85718 6.95459Z" fill="white"/>
<path d="M8.75317 10.1785C8.99764 10.3276 9.26105 10.4434 9.53633 10.5226L9.64598 10.1316C9.40142 10.0676 9.16687 9.97026 8.94896 9.84229L8.75317 10.1785Z" fill="white" stroke="white" stroke-width="0.404082"/>
<path d="M13.3189 6.33943C13.1436 5.87257 12.8589 5.45435 12.4888 5.11963L12.2303 5.44804C12.5715 5.73614 12.8398 6.10046 13.0135 6.51145L13.3189 6.33943Z" fill="white" stroke="white" stroke-width="0.404082"/>
<path d="M7.46263 7.62052C7.46239 8.11923 7.58153 8.61089 7.81011 9.05451L8.16764 8.83813C7.9498 8.44837 7.82696 8.0129 7.80907 7.56706L7.46263 7.62052Z" fill="white" stroke="white" stroke-width="0.404082"/>
<path d="M8.58873 5.36159L8.33028 5.05664C7.94858 5.37417 7.64569 5.77561 7.44531 6.22952L7.8134 6.37809C7.98658 5.98216 8.25249 5.63355 8.58873 5.36159Z" fill="white" stroke="white" stroke-width="0.404082"/>
<path d="M10.0062 4.73626C10.3542 4.69052 10.7078 4.71175 11.0478 4.79881L11.1496 4.40785C10.7511 4.33345 10.3421 4.33345 9.94356 4.40785H9.66162L9.74777 4.79881L10.0062 4.73626Z" fill="white" stroke="white" stroke-width="0.404082"/>
<path d="M12.9274 8.52109L13.2955 8.66966C13.4062 8.40567 13.4749 8.12601 13.4991 7.84082H13.1075C13.0799 8.07494 13.0193 8.30397 12.9274 8.52109Z" fill="white" stroke="white" stroke-width="0.404082"/>
</g>
<defs>
<clipPath id="clip0_2046_804">
<rect width="16.6122" height="22" fill="white" transform="translate(7 4)"/>
</clipPath>
</defs>
</svg>

<svg xmlns="http://www.w3.org/2000/svg" width="30" height="30" fill="none" viewBox="0 0 30 30"><g fill="#fff" clip-path="url(#a)"><path d="M10.123 6.62A1.8 1.8 0 0 1 11 6.618a1.15 1.15 0 0 1 .867.847l.132.388.25.722c.24.706.543 1.614.842 2.48l.029-.038.01-.014.012-.012a1.8 1.8 0 0 1 1.149-.497c.924.03 1.236.548 1.345.657q.01.009.02-.059a1.62 1.62 0 0 1 1.78-.6c.233.067.447.19.623.356l.023.022.015.026q.184.314.33.648.061-.075.135-.14l.004-.002h.001a1.69 1.69 0 0 1 1.423-.35h.001a1.2 1.2 0 0 1 .855.729l.015.038v.108c.271.83.49 1.614.69 2.38.153.579.314 1.161.483 1.724l.172.555.004.013.003.014c.042.223.247 1.115.445 2.012.098.445.195.89.267 1.246.035.177.065.335.087.46.017.103.028.198.032.265a1.28 1.28 0 0 1-.155.868c.095.094.17.205.215.332l.006.017.003.017.243 1.337.047.26h-.038a.87.87 0 0 1-.574.768l-.01.004-5.122 1.563-.031.01h-.23a.875.875 0 0 1-.812-.57l-.61-.98-.01-.015-.006-.015a.9.9 0 0 1-.072-.345l.003-.055a.83.83 0 0 1-.383-.185l-.01-.009-.008-.01a63 63 0 0 1-2.002-2.33 30 30 0 0 1-1.281-1.676c-.366-.525-.665-1.016-.782-1.375v-.004l-.069-.227-.03-.11c-.052-.256.008-.515.095-.738.1-.259.251-.506.372-.7l.003-.004.045-.07a86 86 0 0 0-1.38-4.18h-.005a98 98 0 0 0-.487-1.32c-.294-.848-.602-1.722-.9-2.644-.017-.31-.004-.605.066-.854.05-.11.119-.213.204-.3l.007-.009.173-.142a1.8 1.8 0 0 1 .604-.283m6.958 18.845.012.006a1 1 0 0 1-.077-.048zm-.96-1.487a.7.7 0 0 0 .04.126l.619.993h.001l-.62-.993a.7.7 0 0 1-.052-.258zm1.096 1.104a.3.3 0 0 0-.037-.06zm-.5-1.254.619 1.006.011.019.008.021c.02.057.04.08.05.088h.003l.013-.005 5.097-1.556v-.002l-.006-.019-.004-.018-.228-1.274h-.032zm5.89-.224.041-.02q.008-.006.017-.013a.2.2 0 0 1-.058.033M10.664 7.416l-.027.004-.027-.002a.9.9 0 0 0-.596.18l-.069.059-.008.011-.005.013a.27.27 0 0 0-.017.164l.017.054.006.013.004.013c.265.878.568 1.694.852 2.503l.275.808.003.01.04.092a.6.6 0 0 1 .05.17l.054.176.075.188.004.01.722 2.11c.239.716.475 1.454.706 2.239l.01.03v.234l-.032.052-.07.118-.098.178-.003.007-.005.007c-.102.16-.213.342-.289.513q-.057.127-.075.224a.3.3 0 0 0-.003.126v.001l.07.225.075.184c.095.205.252.47.461.782.276.409.63.88 1.015 1.367a60 60 0 0 0 2.253 2.658l.306-.098h.002c1.17-.364 4.18-1.342 5.709-1.8.015-.043.039-.151.04-.392a36 36 0 0 0-.822-3.827c-.244-.724-.457-1.55-.658-2.282-.204-.744-.43-1.568-.701-2.39l-.012-.034v-.069a.36.36 0 0 0-.24-.181v-.001a.83.83 0 0 0-.691.174.44.44 0 0 0-.117.148l.017.1c.019.117.052.318.116.65l.083.247.076.226-.232.057-.634.157-.213.052-.053-.213-.118-.47v-.001a13 13 0 0 0-.525-1.67.7.7 0 0 0-.212-.11v-.002a.82.82 0 0 0-.872.294c.086.706.244 1.4.472 2.074l.07.195.076.213-.215.07-.618.204-.246.08-.04-.254-.02-.122a1 1 0 0 1-.067-.184 57 57 0 0 0-.685-1.998l-.001-.004a1 1 0 0 0-.055-.122l-.01-.019-.008-.021a.43.43 0 0 0-.231-.257l-.008-.003a.3.3 0 0 0-.09-.027l-.015-.002a.92.92 0 0 0-.806.219l.005.018-.013.047.006.02v.12l.012.064.021.073.004.009.002.01c.097.368.258.923.394 1.388l.173.59.054.178.015.049.003.013v.003l.056.18.063.204-.204.069-.587.195-.198.065-.077-.194-.07-.18-.015-.039v-.013l-.007-.02-.048-.145-.18-.524c-.154-.438-.367-1.035-.605-1.687l-.001-.001-.07-.196-.002-.003-.07-.203-.002-.005a74 74 0 0 0-.658-1.95c-.216-.616-.413-1.174-.54-1.568l-.133-.414-.003-.01-.002-.01a.35.35 0 0 0-.265-.262.5.5 0 0 0-.178 0m11.599 14.452h-.047za.26.26 0 0 0 0-.001m-10.628-3.73q.04.122.11.269.07.146.168.314a3.3 3.3 0 0 1-.277-.583l-.07-.234h-.002zm1.797-3.707v-.005zm.572-1.077-.212-.731zm1.578-.608c-.128-.378-.266-.769-.367-1.042h-.001c.101.273.239.664.368 1.042m-.116-8.884-.918-.059v-.082h-26.909v7.614l19.307.018v.82h-20.145v-9.29h28.665zm3.05 7.929a1 1 0 0 0-.123.262l.001.002q.044-.142.122-.264m.186.21-.015.024a1 1 0 0 1 .072-.095zm1-.352v-.001m-9.281-.165v.093zc-.183-.54-.376-1.085-.57-1.645.194.56.386 1.105.57 1.645m2.78-.211.095-.125zm-2.34.031-.203-.598-.056-.157q.136.382.258.755m3.93-.148a.7.7 0 0 1 .118.067zm-1.15-.261-.024.014q.075-.042.152-.075zm.694-.186q.09-.002.181.004l-.142-.005zm-4.036-1.021.224.636c-.17-.48-.345-.971-.514-1.474zM1.986 7.355h4.96v.839h-4.96a.42.42 0 0 1-.407-.334l-.008-.082.008-.081a.43.43 0 0 1 .11-.213l.062-.053a.43.43 0 0 1 .227-.076l.008-.001zm7.871-.4a2 2 0 0 0 .134-.061z"/><path stroke="#fff" stroke-width=".404" d="M8.753 10.179q.369.224.783.344l.11-.391a2.8 2.8 0 0 1-.697-.29zM13.319 6.34a3.1 3.1 0 0 0-.83-1.22l-.259.328c.341.288.61.652.784 1.063zM7.463 7.62c0 .5.119.99.347 1.435l.358-.217a2.84 2.84 0 0 1-.359-1.27zM8.589 5.362l-.259-.305a3.2 3.2 0 0 0-.885 1.173l.368.148c.174-.396.44-.744.776-1.016ZM10.006 4.736a2.8 2.8 0 0 1 1.042.063l.102-.391a3.3 3.3 0 0 0-1.206 0h-.282l.086.39zM12.927 8.521l.369.149c.11-.264.179-.544.203-.83h-.392a2.5 2.5 0 0 1-.18.681Z"/></g><defs><clipPath id="a"><path fill="#fff" d="M7 4h16.612v22H7z"/></clipPath></defs></svg>
